X:58
T:False Swain (Nichols)
%%VWML:SBG-1-2-378-0
F:http://www.vwml.org/record/SBG/1/2/378
Z:Original Sibelius transcriptions by M. & S. Graebe
M:6/8
I:linebreak $
K:G
V:1 treble nm="P1"
V:1
 d | ddd efg | dBc !fermata!dGd | dBc ddd | ed^c d2 d |$ dBG EFG | ccB AFD | ddd efg | BGA G3 | %9

